rospo-icon-theme-classic-common/64x64/apps/sirikali.svg

<svg height="64" width="64" xmlns="http://www.w3.org/2000/svg"><rect height="56" opacity=".2" rx="2.8" transform="matrix(0 -1 -1 0 0 0)" width="56" x="-61" y="-60"/><rect fill="#1493ca" height="56" rx="2.8" transform="matrix(0 -1 -1 0 0 0)" width="56" x="-60" y="-60"/><path d="m6.8007812 4c-1.5512 0-2.8007812 1.2495812-2.8007812 2.8007812v1c0-1.5511999 1.2495812-2.8007812 2.8007812-2.8007812h50.3984378c1.5512 0 2.800781 1.2495812 2.800781 2.8007812v-1c0-1.5511999-1.249581-2.8007812-2.800781-2.8007812z" fill="#fff" opacity=".2"/><path d="m32 15c-5.6408 0-10 4.586756-10 10.285156v4.714844h-2.21875c-.9864 0-1.78125.945406-1.78125 1.941406v17.257813c0 .996.79485 1.800781 1.78125 1.800781h24.4375c.986 0 1.78125-.804781 1.78125-1.800781v-17.257813c0-.996-.79725-2.005406-1.78125-1.941406h-2.21875v-4.712891c0-5.6986-4.36-10.287109-10-10.287109zm0 4c3.5254 0 6 2.723556 6 6.285156v4.714844h-12v-4.714844c0-3.562 2.474-6.285156 6-6.285156zm0 14a5 5 0 0 1 5 5 5 5 0 0 1 -3 4.576172v3.423828c0 1.108-.892 2-2 2s-2-.892-2-2v-3.419922a5 5 0 0 1 -3-4.580078 5 5 0 0 1 5-5z" opacity=".2"/><path d="m32 14c-5.6408 0-10 4.586756-10 10.285156v4.714844h-2.21875c-.9864 0-1.78125.945406-1.78125 1.941406v17.257813c0 .996.79485 1.800781 1.78125 1.800781h24.4375c.986 0 1.78125-.804781 1.78125-1.800781v-17.257813c0-.996-.79725-2.005406-1.78125-1.941406h-2.21875v-4.712891c0-5.6986-4.36-10.287109-10-10.287109zm0 4c3.5254 0 6 2.723556 6 6.285156v4.714844h-12v-4.714844c0-3.562 2.474-6.285156 6-6.285156zm0 14a5 5 0 0 1 5 5 5 5 0 0 1 -3 4.576172v3.423828c0 1.108-.892 2-2 2s-2-.892-2-2v-3.419922a5 5 0 0 1 -3-4.580078 5 5 0 0 1 5-5z" fill="#fff"/></svg>

<svg xmlns="http://www.w3.org/2000/svg" width="64" height="64" version="1">
 <rect width="56" height="56" x="-61" y="-60" rx="2.8" ry="2.8" transform="matrix(0,-1,-1,0,0,0)" style="opacity:0.2"/>
 <rect style="fill:#1493ca" width="56" height="56" x="-60" y="-60" rx="2.8" ry="2.8" transform="matrix(0,-1,-1,0,0,0)"/>
 <path style="opacity:0.2;fill:#ffffff" d="M 6.8007812 4 C 5.2495812 4 4 5.2495812 4 6.8007812 L 4 7.8007812 C 4 6.2495813 5.2495812 5 6.8007812 5 L 57.199219 5 C 58.750419 5 60 6.2495812 60 7.8007812 L 60 6.8007812 C 60 5.2495813 58.750419 4 57.199219 4 L 6.8007812 4 z"/>
 <path d="M 32,15 C 26.3592,15 22,19.586756 22,25.285156 L 22,30 19.78125,30 C 18.79485,30 18,30.945406 18,31.941406 l 0,17.257813 C 18,50.195219 18.79485,51 19.78125,51 l 24.4375,0 C 45.20475,51 46,50.195219 46,49.199219 L 46,31.941406 C 46,30.945406 45.20275,29.936 44.21875,30 L 42,30 42,25.287109 C 42,19.588509 37.64,15 32,15 Z m 0,4 c 3.5254,0 6,2.723556 6,6.285156 L 38,30 26,30 26,25.285156 C 26,21.723156 28.474,19 32,19 Z m 0,14 a 5,5 0 0 1 5,5 5,5 0 0 1 -3,4.576172 L 34,46 c 0,1.108 -0.892,2 -2,2 -1.108,0 -2,-0.892 -2,-2 l 0,-3.419922 A 5,5 0 0 1 27,38 5,5 0 0 1 32,33 Z" style="opacity:0.2"/>
 <path style="fill:#ffffff" d="M 32 14 C 26.3592 14 22 18.586756 22 24.285156 L 22 29 L 19.78125 29 C 18.79485 29 18 29.945406 18 30.941406 L 18 48.199219 C 18 49.195219 18.79485 50 19.78125 50 L 44.21875 50 C 45.20475 50 46 49.195219 46 48.199219 L 46 30.941406 C 46 29.945406 45.20275 28.936 44.21875 29 L 42 29 L 42 24.287109 C 42 18.588509 37.64 14 32 14 z M 32 18 C 35.5254 18 38 20.723556 38 24.285156 L 38 29 L 26 29 L 26 24.285156 C 26 20.723156 28.474 18 32 18 z M 32 32 A 5 5 0 0 1 37 37 A 5 5 0 0 1 34 41.576172 L 34 45 C 34 46.108 33.108 47 32 47 C 30.892 47 30 46.108 30 45 L 30 41.580078 A 5 5 0 0 1 27 37 A 5 5 0 0 1 32 32 z"/>
</svg>
